icons/Time_stroke.svg

<svg width="48" height="48" viewBox="0 0 48 48" fill="currentColor" xmlns="http://www.w3.org/2000/svg">
<path d="M40.3726 23.8221H38.8704" stroke="#3D3D3D" stroke-width="0.75" stroke-linecap="round" stroke-linejoin="round"/>
<path d="M7.48567 23.8544H8.97172" stroke="#3D3D3D" stroke-width="0.75" stroke-linecap="round" stroke-linejoin="round"/>
<path d="M12.3638 12.1523L13.4452 13.3468" stroke="#3D3D3D" stroke-width="0.75" stroke-linecap="round" stroke-linejoin="round"/>
<path d="M35.752 12.1846L34.5576 13.2661" stroke="#3D3D3D" stroke-width="0.75" stroke-linecap="round" stroke-linejoin="round"/>
<path d="M23.9776 40.3988V38.9139" stroke="#3D3D3D" stroke-width="0.75" stroke-linecap="round" stroke-linejoin="round"/>
<path d="M23.9776 9.0372V7.55225" stroke="#3D3D3D" stroke-width="0.75" stroke-linecap="round" stroke-linejoin="round"/>
<path d="M35.6875 35.5728L34.6061 34.3784" stroke="#3D3D3D" stroke-width="0.75" stroke-linecap="round" stroke-linejoin="round"/>
<path d="M12.2023 35.6211L13.2837 34.4428" stroke="#3D3D3D" stroke-width="0.75" stroke-linecap="round" stroke-linejoin="round"/>
<path d="M24.026 14.3314V23.9836" stroke="#3D3D3D" stroke-width="0.75" stroke-linecap="round" stroke-linejoin="round"/>
<path d="M24.0745 24.0159H33.5238" stroke="#3D3D3D" stroke-width="0.75" stroke-linecap="round" stroke-linejoin="round"/>
<path d="M39.7911 8.68209C43.4458 12.2124 45.6321 16.9912 45.913 22.0628C46.2999 26.3968 45.391 30.748 43.3015 34.5655C41.2119 38.383 38.0357 41.495 34.1751 43.5074C30.3144 45.5198 25.9429 46.3422 21.6142 45.8703C17.2855 45.3985 13.1943 43.6536 9.85863 40.8567C6.52298 38.0598 4.09295 34.3367 2.87626 30.1588C1.65957 25.9809 1.71095 21.5362 3.0239 17.3876C4.33684 13.2389 6.85229 9.57286 10.2517 6.8537C13.6511 4.13455 17.7816 2.48459 22.12 2.11277C26.7916 1.6184 31.4901 2.75936 35.4137 5.34094" stroke="#3D3D3D" stroke-width="0.75" stroke-linecap="round" stroke-linejoin="round"/>
</svg>

<svg xmlns="http://www.w3.org/2000/svg" width="16" height="16" fill="currentColor" class="si si-Time_stroke" viewBox="0 0 16 16">
  <path stroke="#3D3D3D" stroke-linecap="round" stroke-linejoin="round" stroke-width=".75" d="M40.373 23.822H38.87m-31.384.032h1.486m3.392-11.702 1.081 1.195m22.307-1.162-1.194 1.081m-10.58 27.133v-1.485m0-29.877V7.552m11.71 28.021-1.082-1.195m-22.404 1.243 1.082-1.178m10.742-20.112v9.653m.049.032h9.449m6.267-15.334a20.15 20.15 0 0 1 6.122 13.38 21.97 21.97 0 0 1-2.611 12.503 22 22 0 0 1-9.127 8.942 22.01 22.01 0 0 1-24.316-2.65 21.968 21.968 0 0 1 .393-34.003c3.4-2.72 7.53-4.37 11.868-4.741A20.3 20.3 0 0 1 35.414 5.34"/>
</svg>
